X:1
T: The Lads wi' the Kilts
C:
R:Jig
Q:180
K:D
M:6/8
L:1/16
|:d2B2A2 A2A2B2|d2e2f2 d2B2A2|B2d2A2 B4g2|a2d2a2 g2f2e2|
d2B2A2 A2A2B2|d2e2f2 d2B2A2|d2B2A2 B4g2|a2d2a2 g2f2e2:|
|:d2e2f2 g2f2g2|a2g2f2 f2e2f2|d2e2f2 g2f2g2|a2g2f2f4e2|
d2e2f2 g2f2g2|a2g2f2 f2e2f2|d2B2A2 A4g2|a2d2a2 g2f2e2:|
